src/img/share.svg

<svg fill="none" height="16" viewBox="0 0 15 16" width="15" xmlns="http://www.w3.org/2000/svg"><path clip-rule="evenodd" d="m9.50825 10.8c.46667-.4667 1.13335-.80004 1.86665-.80004 1.4667 0 2.6667 1.20004 2.6667 2.66664 0 1.4667-1.2 2.6667-2.6667 2.6667-1.46665 0-2.66665-1.2-2.66665-2.6667 0-.1333.01667-.25.03333-.3666.01667-.1167.03334-.2334.03334-.3667l-3.53333-2.06667c-.46667.46667-1.13334.79997-1.86667.79997-1.46667 0-2.666668-1.19997-2.666668-2.66664s1.199998-2.66667 2.666668-2.66667c.73333 0 1.4.33334 1.86667.8l3.6-2.06666c-.01144-.04576-.02288-.08955-.03398-.13205-.05361-.20521-.09936-.38037-.09936-.60129 0-1.46666 1.2-2.666664 2.66665-2.666664 1.4667 0 2.6667 1.200004 2.6667 2.666664 0 1.46667-1.2 2.66667-2.6667 2.66667-.7333 0-1.39998-.33333-1.93331-.8l-3.53334 2.06667c.01144.04575.02288.08954.03398.13204.0536.20521.09936.38037.09936.60129 0 .13333-.01667.25-.03334.36667-.01666.11666-.03333.23333-.03333.36666zm3.20005-7.46671c0-.73333-.6-1.33333-1.3334-1.33333-.7333 0-1.3333.6-1.3333 1.33333 0 .73334.6 1.33334 1.3333 1.33334.7334 0 1.3334-.6 1.3334-1.33334zm-9.33338 6c-.73333 0-1.33333-.6-1.33333-1.33333s.6-1.33333 1.33333-1.33333 1.33333.6 1.33333 1.33333-.6 1.33333-1.33333 1.33333zm6.66668 3.33331c0 .7334.6 1.3334 1.3333 1.3334.7334 0 1.3334-.6 1.3334-1.3334 0-.7333-.6-1.3333-1.3334-1.3333-.4666 0-.9333.2667-1.1333.6667-.1333.2-.2.4-.2.6666z" fill="#6f6f6f" fill-rule="evenodd"/></svg>

<svg width="15" height="16" viewBox="0 0 15 16" fill="none" 
  xmlns="http://www.w3.org/2000/svg">
  <path fill-rule="evenodd" clip-rule="evenodd" d="M9.50825 10.8C9.97492 10.3333 10.6416 9.99996 11.3749 9.99996C12.8416 9.99996 14.0416 11.2 14.0416 12.6666C14.0416 14.1333 12.8416 15.3333 11.3749 15.3333C9.90825 15.3333 8.70825 14.1333 8.70825 12.6666C8.70825 12.5333 8.72492 12.4166 8.74158 12.3C8.75825 12.1833 8.77492 12.0666 8.77492 11.9333L5.24159 9.86663C4.77492 10.3333 4.10825 10.6666 3.37492 10.6666C1.90825 10.6666 0.708252 9.46663 0.708252 7.99996C0.708252 6.53329 1.90825 5.33329 3.37492 5.33329C4.10825 5.33329 4.77492 5.66663 5.24159 6.13329L8.84159 4.06663C8.83015 4.02087 8.81871 3.97708 8.80761 3.93458C8.754 3.72937 8.70825 3.55421 8.70825 3.33329C8.70825 1.86663 9.90825 0.666626 11.3749 0.666626C12.8416 0.666626 14.0416 1.86663 14.0416 3.33329C14.0416 4.79996 12.8416 5.99996 11.3749 5.99996C10.6416 5.99996 9.97492 5.66663 9.44159 5.19996L5.90825 7.26663C5.91969 7.31238 5.93113 7.35617 5.94223 7.39867C5.99583 7.60388 6.04159 7.77904 6.04159 7.99996C6.04159 8.13329 6.02492 8.24996 6.00825 8.36663C5.99159 8.48329 5.97492 8.59996 5.97492 8.73329L9.50825 10.8ZM12.7083 3.33329C12.7083 2.59996 12.1083 1.99996 11.3749 1.99996C10.6416 1.99996 10.0416 2.59996 10.0416 3.33329C10.0416 4.06663 10.6416 4.66663 11.3749 4.66663C12.1083 4.66663 12.7083 4.06663 12.7083 3.33329ZM3.37492 9.33329C2.64159 9.33329 2.04159 8.73329 2.04159 7.99996C2.04159 7.26663 2.64159 6.66663 3.37492 6.66663C4.10825 6.66663 4.70825 7.26663 4.70825 7.99996C4.70825 8.73329 4.10825 9.33329 3.37492 9.33329ZM10.0416 12.6666C10.0416 13.4 10.6416 14 11.3749 14C12.1083 14 12.7083 13.4 12.7083 12.6666C12.7083 11.9333 12.1083 11.3333 11.3749 11.3333C10.9083 11.3333 10.4416 11.6 10.2416 12C10.1083 12.2 10.0416 12.4 10.0416 12.6666Z" fill="#6F6F6F"/>
</svg>
